packages/foundations/assets/icons/functional/images/social/thumbs_up_28.svg

<svg width="28" height="28" viewBox="0 0 28 28" fill="none" xmlns="http://www.w3.org/2000/svg">
<g clip-path="url(#clip0_187_539)">
<path fill-rule="evenodd" clip-rule="evenodd" d="M18.9376 10.5C19.4775 9.34502 20.139 7.6239 20.139 6.12502C20.139 4.0644 19.054 2.62415 17.5 2.62415C16.0545 2.62415 15.7439 3.59977 15.4936 4.38465C15.3711 4.7679 15.2329 5.20365 14.9669 5.7339C13.6763 8.31427 10.7739 10.4379 9.64163 11.1974C9.17438 10.7686 8.5575 10.5009 7.87413 10.5009H4.375C2.92775 10.5009 1.75 11.6786 1.75 13.1259V21.0009C1.75 22.4481 2.92775 23.6259 4.375 23.6259H7.875C8.60125 23.6259 9.25925 23.3284 9.73525 22.8506C11.3628 23.4509 16.7134 25.3759 18.375 25.3759C22.6459 25.3759 26.25 18.9263 26.25 14.8759C26.25 13.2396 26.25 10.5009 22.75 10.5009L18.9376 10.5ZM8.75 21C8.75 21.483 8.35712 21.875 7.875 21.875H4.375C3.89287 21.875 3.5 21.483 3.5 21V13.125C3.5 12.642 3.89287 12.25 4.375 12.25H7.875C8.35712 12.25 8.75 12.642 8.75 13.125V21ZM10.4738 21.2564C10.4825 21.1706 10.5 21.0875 10.5 21V13.125C10.5 12.9981 10.4799 12.8765 10.4624 12.7549C11.6034 12.0094 14.98 9.62152 16.5322 6.51702C16.8586 5.86515 17.0327 5.31652 17.1605 4.91665C17.2314 4.69527 17.3189 4.42052 17.3162 4.39165C17.3162 4.39165 17.3652 4.37415 17.4991 4.37415C18.1099 4.37415 18.3881 5.28152 18.3881 6.12502C18.3881 8.12352 16.7624 10.9025 16.7466 10.9296C16.5865 11.2009 16.5839 11.5351 16.7405 11.809C16.8962 12.082 17.1859 12.25 17.5 12.25H22.75C24.1483 12.25 24.5 12.5598 24.5 14.875C24.5 18.3295 21.2153 23.625 18.375 23.625C17.2917 23.625 13.1714 22.2478 10.4738 21.2564Z" fill="#1A1C1F"/>
</g>
<defs>
<clipPath id="clip0_187_539">
<rect width="28" height="28" fill="white"/>
</clipPath>
</defs>
</svg>

<svg xmlns="http://www.w3.org/2000/svg" width="28" height="28" fill="none"><g clip-path="url(#a)"><path fill="#1A1C1F" fill-rule="evenodd" d="M18.938 10.5c.54-1.155 1.201-2.876 1.201-4.375 0-2.06-1.085-3.5-2.639-3.5-1.445 0-1.756.975-2.006 1.76-.123.383-.261.819-.527 1.349-1.29 2.58-4.193 4.704-5.325 5.463a2.6 2.6 0 0 0-1.768-.696H4.375a2.63 2.63 0 0 0-2.625 2.625V21a2.63 2.63 0 0 0 2.625 2.625h3.5a2.62 2.62 0 0 0 1.86-.775c1.628.6 6.978 2.525 8.64 2.525 4.27 0 7.875-6.45 7.875-10.5 0-1.636 0-4.375-3.5-4.375zM8.75 21a.876.876 0 0 1-.875.875h-3.5A.876.876 0 0 1 3.5 21v-7.875c0-.483.393-.875.875-.875h3.5c.482 0 .875.392.875.875zm1.724.256c.008-.085.026-.169.026-.256v-7.875c0-.127-.02-.248-.038-.37 1.141-.746 4.518-3.133 6.07-6.238.327-.652.5-1.2.628-1.6.071-.222.159-.496.156-.525 0 0 .05-.018.183-.018.61 0 .89.908.89 1.751 0 1.999-1.627 4.778-1.642 4.805a.873.873 0 0 0 .753 1.32h5.25c1.398 0 1.75.31 1.75 2.625 0 3.454-3.285 8.75-6.125 8.75-1.083 0-5.204-1.377-7.901-2.369" clip-rule="evenodd"/></g><defs><clipPath id="a"><path fill="#fff" d="M0 0h28v28H0z"/></clipPath></defs></svg>
